src/sponsors/img/palantir-logo.svg

<svg xmlns="http://www.w3.org/2000/svg" width="100" height="25"><path d="M24.4 3h6.2c2.3 0 3.8.1 5.1 1.5.9 1 1.4 2.2 1.4 3.6s-.5 2.6-1.5 3.6-2.3 1.6-5.6 1.6h-3v8.3h-2.6V3zm2.6 8.2h3c1.7 0 4.3-.1 4.3-3.2 0-2.9-2.4-2.9-3.8-2.9H27v6.1zm18.4 10.4c-.2-.6-.2-1.3-.2-1.9-1.2 2.1-2.9 2.3-4 2.3-3 0-4.6-1.7-4.6-3.8 0-1 .4-2.7 2.3-3.8 1.4-.8 3.4-.8 4.5-.8.6 0 1 0 1.7.1 0-1.6 0-2.3-.5-2.9-.5-.6-1.5-.8-2.2-.8-2.4 0-2.6 1.7-2.6 2.2h-2.4c.1-.7.2-1.6.9-2.4 1-1.1 2.8-1.4 4.2-1.4 1.9 0 3.9.6 4.6 1.9.4.8.4 1.4.4 2l-.1 6.2c0 .2 0 1.9.2 3.2h-2.2zm-1.7-6.4c-1 0-4.7 0-4.7 2.6 0 .8.5 2.2 2.7 2.2 1.2 0 2.2-.5 2.8-1.4.5-.9.6-1.6.6-3.4-.4.1-.8 0-1.4 0zM49.6 3H52v18.6h-2.4V3zm12.8 18.6c-.2-.6-.2-1.3-.2-1.9-1.2 2.1-2.9 2.3-4 2.3-3 0-4.6-1.7-4.6-3.8 0-1 .4-2.7 2.3-3.8 1.4-.8 3.4-.8 4.5-.8.6 0 1 0 1.7.1 0-1.6 0-2.3-.5-2.9-.5-.6-1.5-.8-2.2-.8-2.4 0-2.6 1.7-2.6 2.2h-2.4c.1-.7.2-1.6.9-2.4 1-1.1 2.8-1.4 4.2-1.4 1.9 0 3.9.6 4.6 1.9.4.8.4 1.4.4 2l-.1 6.2c0 .2 0 1.9.2 3.2h-2.2zm-1.6-6.4c-1 0-4.7 0-4.7 2.6 0 .8.5 2.2 2.7 2.2 1.2 0 2.2-.5 2.8-1.4.5-.9.6-1.6.6-3.4-.5.1-.8 0-1.4 0zm5.9-5V8.7h2.4v2.1c.3-.5 1.2-2.3 4.1-2.3 1.2 0 4.7.4 4.7 4.4v8.8h-2.5v-8.2c0-.8-.1-1.6-.7-2.2-.6-.6-1.5-.9-2.3-.9-1.8 0-3.4 1.3-3.4 3.9v7.4h-2.4V10.2zm12-1.5H81V5.9l2.4-.8v3.5h2.9v1.8h-2.9v7.7c0 .6 0 1.7 1.7 1.7.5 0 1-.1 1.2-.1v1.9c-.4.1-1.1.2-2 .2-2.3 0-3.3-.7-3.3-2.8v-8.6h-2.3V8.7zM88 3h2.9v2.7H88V3zm.2 5.7h2.4v12.9h-2.4V8.7zm4.7 2.6c0-.9-.1-1.8-.1-2.6h2.4l.1 2.5c.5-1.8 2-2.4 3.1-2.5.7-.1 1.3-.1 1.7-.1V11c-.1 0-.3-.1-.5-.1h-.7c-2.9 0-3.5 1.7-3.5 3.9v6.9H93V11.3zM9.5.5C4.5.5.4 4.6.4 9.6s4.1 9.1 9.1 9.1 9.1-4.1 9.1-9.1S14.5.5 9.5.5zm0 15.4c-3.5 0-6.3-2.8-6.3-6.3S6 3.3 9.5 3.3s6.3 2.8 6.3 6.3c-.1 3.5-2.9 6.3-6.3 6.3zm8.1 2l-8.1 3.5-8.1-3.5L0 20.4l9.5 4 9.5-4-1.4-2.5z"/></svg>

<?xml version="1.0" encoding="UTF-8"?>
<svg width="101px" height="25px" viewBox="0 0 101 25" version="1.1" xmlns="http://www.w3.org/2000/svg" xmlns:xlink="http://www.w3.org/1999/xlink">
    <!-- Generator: Sketch 57.1 (83088) - https://sketch.com -->
    <title>palantir-logo</title>
    <desc>Created with Sketch.</desc>
    <g id="Page-1" stroke="none" stroke-width="1" fill="none" fill-rule="evenodd">
        <g id="palantir-logo" fill="#FFFFFF" fill-rule="nonzero">
            <path d="M24.4,3 L30.6,3 C32.9,3 34.4,3.1 35.7,4.5 C36.6,5.5 37.1,6.7 37.1,8.1 C37.1,9.5 36.6,10.7 35.6,11.7 C34.6,12.7 33.3,13.3 30,13.3 L27,13.3 L27,21.6 L24.4,21.6 L24.4,3 L24.4,3 Z M27,11.2 L30,11.2 C31.7,11.2 34.3,11.1 34.3,8 C34.3,5.1 31.9,5.1 30.5,5.1 L27,5.1 L27,11.2 Z M45.4,21.6 C45.2,21 45.2,20.3 45.2,19.7 C44,21.8 42.3,22 41.2,22 C38.2,22 36.6,20.3 36.6,18.2 C36.6,17.2 37,15.5 38.9,14.4 C40.3,13.6 42.3,13.6 43.4,13.6 C44,13.6 44.4,13.6 45.1,13.7 C45.1,12.1 45.1,11.4 44.6,10.8 C44.1,10.2 43.1,10 42.4,10 C40,10 39.8,11.7 39.8,12.2 L37.4,12.2 C37.5,11.5 37.6,10.6 38.3,9.8 C39.3,8.7 41.1,8.4 42.5,8.4 C44.4,8.4 46.4,9 47.1,10.3 C47.5,11.1 47.5,11.7 47.5,12.3 L47.4,18.5 C47.4,18.7 47.4,20.4 47.6,21.7 L45.4,21.7 L45.4,21.6 Z M43.7,15.2 C42.7,15.2 39,15.2 39,17.8 C39,18.6 39.5,20 41.7,20 C42.9,20 43.9,19.5 44.5,18.6 C45,17.7 45.1,17 45.1,15.2 C44.7,15.3 44.3,15.2 43.7,15.2 Z M49.6,3 L52,3 L52,21.6 L49.6,21.6 L49.6,3 Z M62.4,21.6 C62.2,21 62.2,20.3 62.2,19.7 C61,21.8 59.3,22 58.2,22 C55.2,22 53.6,20.3 53.6,18.2 C53.6,17.2 54,15.5 55.9,14.4 C57.3,13.6 59.3,13.6 60.4,13.6 C61,13.6 61.4,13.6 62.1,13.7 C62.1,12.1 62.1,11.4 61.6,10.8 C61.1,10.2 60.1,10 59.4,10 C57,10 56.8,11.7 56.8,12.2 L54.4,12.2 C54.5,11.5 54.6,10.6 55.3,9.8 C56.3,8.7 58.1,8.4 59.5,8.4 C61.4,8.4 63.4,9 64.1,10.3 C64.5,11.1 64.5,11.7 64.5,12.3 L64.4,18.5 C64.4,18.7 64.4,20.4 64.6,21.7 L62.4,21.7 L62.4,21.6 Z M60.8,15.2 C59.8,15.2 56.1,15.2 56.1,17.8 C56.1,18.6 56.6,20 58.8,20 C60,20 61,19.5 61.6,18.6 C62.1,17.7 62.2,17 62.2,15.2 C61.7,15.3 61.4,15.2 60.8,15.2 Z M66.7,10.2 L66.7,8.7 L69.1,8.7 L69.1,10.8 C69.4,10.3 70.3,8.5 73.2,8.5 C74.4,8.5 77.9,8.9 77.9,12.9 L77.9,21.7 L75.4,21.7 L75.4,13.5 C75.4,12.7 75.3,11.9 74.7,11.3 C74.1,10.7 73.2,10.4 72.4,10.4 C70.6,10.4 69,11.7 69,14.3 L69,21.7 L66.6,21.7 L66.6,10.2 L66.7,10.2 Z M78.7,8.7 L81,8.7 L81,5.9 L83.4,5.1 L83.4,8.6 L86.3,8.6 L86.3,10.4 L83.4,10.4 L83.4,18.1 C83.4,18.7 83.4,19.8 85.1,19.8 C85.6,19.8 86.1,19.7 86.3,19.7 L86.3,21.6 C85.9,21.7 85.2,21.8 84.3,21.8 C82,21.8 81,21.1 81,19 L81,10.4 L78.7,10.4 L78.7,8.7 L78.7,8.7 Z M88,3 L90.9,3 L90.9,5.7 L88,5.7 L88,3 Z M88.2,8.7 L90.6,8.7 L90.6,21.6 L88.2,21.6 L88.2,8.7 Z M92.9,11.3 C92.9,10.4 92.8,9.5 92.8,8.7 L95.2,8.7 L95.3,11.2 C95.8,9.4 97.3,8.8 98.4,8.7 C99.1,8.6 99.7,8.6 100.1,8.6 L100.1,11 C100,11 99.8,10.9 99.6,10.9 L98.9,10.9 C96,10.9 95.4,12.6 95.4,14.8 L95.4,21.7 L93,21.7 L93,11.3 L92.9,11.3 Z M9.5,0.5 C4.5,0.5 0.4,4.6 0.4,9.6 C0.4,14.6 4.5,18.7 9.5,18.7 C14.5,18.7 18.6,14.6 18.6,9.6 C18.6,4.6 14.5,0.5 9.5,0.5 Z M9.5,15.9 C6,15.9 3.2,13.1 3.2,9.6 C3.2,6.1 6,3.3 9.5,3.3 C13,3.3 15.8,6.1 15.8,9.6 C15.7,13.1 12.9,15.9 9.5,15.9 L9.5,15.9 Z M17.6,17.9 L9.5,21.4 L1.4,17.9 L0,20.4 L9.5,24.4 L19,20.4 L17.6,17.9 Z" id="Shape"></path>
        </g>
    </g>
</svg>
